X: 500
T: Tsamikos
O: Greece
S: Greek Dance Party
F: http://www.youtube.com/watch?v=pWeBh-NfGBs
F: http://www.youtube.com/watch?v=DbuVwgnYg3o
F: http://www.youtube.com/watch?v=lvXEM3N0JrE
M: 6/8
L: 1/8
Q: 1/4=96
K: Am
%%MIDI gchord fzcccc
%%MIDI program 64
%%MIDI bassprog 6
%%MIDI chordprog 107
|:"Am"EA/A/ AA Ac            |A4 c/B/A/B/          |\
  A3/2E/ e/d/c/A/ c/A/B/c/   |"C"c6                |
  Ec/B/ AA Bc                |"Dm"B4 "Am"E/^F/^G/A/|\
  c/B/A/^G/ A4               |c/B/A/B/ ^G2A2       :|
|:"Dm"A/B/c/^c/ dddd         |d/c/B/A/ B2 d/c/B/A/ |\
  "Em"E2 E/^F/^G/A/ c/B/A/^G/|[1"Am" A4 c/B/A/B/   :|[2"Am"A6|



